X: 6
T: Brighton Puzzle, The
M: 2/4
L: 1/8
B: Goulding & Co. - Twenty Four Country Dances for the Year 1808 (London) p.3 #2
F: http://petrucci.mus.auth.gr/imglnks/usimg/7/7e/IMSLP351864-PMLP71783-goulding_24_dances_1808.pdf
Z: Transcribed and edited by Flynn Titford-Mock
Z: ABC's: AK/Fiddler's Companion
Z: Dance added 2015 by John Chambers  <jc:trillian.mit.edu>
K: D
% - - - - - - - - - - - - - - - - - - - - - - - - - - - - -
F/G/ |\
[FA][FA][FA] F/G/ | [FA][FA][FA] d/c/ | B/A/G/F/ EA | FD D F/G/ |\
[FA][FA][FA] F/G/ | [FA][FA][FA] d/f/ | edcB | A/^G/A/B/ A :|!
|: f/g/ |\
aaa f/g/ | aaa a/f/ | eg/e/ ce/c/ | df/d/ A f/g/ |\
aaa f/g/ | aaa g/a/ | bgec | d2 d :|
% - - - - - - - - - - Dance description - - - - - - - - - -
%%begintext align
%%   1st Cu: lead down the Middle up again, cast
%% off one Cu: hands 4 round & right & left.
%%endtext
